X: 159
T: Ağyâr ile Sen...
C: Bîmen Şen
O: Turkey
F: http://compmusic.upf.edu/node/140
N: hicaz--sarki--senginsemai--agyar_ile--bimen_sen
N: makam= hicaz
N: form= sarki
N: usul= senginsemai = 6/4
M: 6/4
L: 1/16
K: C _7/8B ^f ^c 
Q: 1/4=72
%%MIDI tuningsystem comma53
e4 c4 A4 =fedf e8  | (3e2=f2g2 (3a2g2f2 e3d fedc d8  | 
w:  ARANAĞME  |   | 
AcBA G4 g4 g=fed c8  | (3A2B2c2 (3d2=f2e2 (3d2c2B2 (3c2B2A2 A8  | 
w:   |   | 
e4 c4 A4 =fedf e8  | (3e2=f2g2 (3a2g2f2 e3d fedc d8  | 
w:  ARANAĞME  |   | 
AcBA G4 g4 g=fed c8  | (3A2B2c2 (3d2=f2e2 (3d2c2B2 (3c2B2A2 A8  | 
w:   |   | 
d4 e4 c4 ddcB A8  | d2e2 d2c2 d3e =fedc d8  | \
w:  Ağ yâr  i le  *  *  *  sen   |  geşt_ *  *  *  i  *  gü *  *  *  zâr   | 
d2e6 e4 g4 =f2e2 d2c2  | 
w:  ey *  le  çe men  | 
d8 c2d2 e=fed d3e dcd2  | d4 a3g g3=f ede^f g6z2  | 
w:  de   SAZ  |  Ben  ağ *  la *  ya *  *  *  yım   | 
g4 =f4 e4 d2dc c8  | d3e =f3e e3d d2=c_1/4B c2d2 dccB  | 
w:  has *  ret  i *  *  le   |  günc_ *  *  *  i  *  mi *  *  hen  | 
_1/4B8 d4 cdec d8  | d3c e3d dc2B cBBA A6z2  | \
w:  de   SAZ  |  Ben  *  ağ *  la *  *  ya *  *  *  yım   | 
dcBA B2d2 dc2B BAGF G8  | 
w:  has *  *  *  *  *  ret  *  *  i *  *  *  le   | 
G2A6 B3A d4 dc2B cBBA  | A8 a3g fefg a8  | \
w:  günc_ *  i  *  mi hen  |  de   SAZ  | 
a4 a4 a3g f2ed a8  | 
w:  Ey  her  gü *  lü *  *  şü   | 
a2g2 f2=b2 a2g2 f2gf e8  | edeg fed2 f4 g2a2 g2f2 g2=ba  | 
w:  â *  *  *  le *  me  *  *  bir   |  gül *  *  *  *  *  *  şen_ i  *  han  | 
a8 aggf feed a8  | a3g =b3a a3g aggf g8  | 
w:  de   SAZ  |  Ey  *  her  *  gü *  lü *  *  *  şü   | 
g2f4e2 e2d2 g2fe e8  | e2fe d4 e2f2 g2ag =f2e2 d2c2  | 
w:  â *  *  le *  me  *  *  bir   |  gül *  *  *  şen_ *  i  *  *  han  | 
d8 c2d2 =f2ed d3e dcd2  | d4 a3g g3=f ede^f g6z2  | 
w:  de   SAZ  |  Ben  ağ *  la *  ya *  *  *  yım   | 
g4 =f4 e4 d2dc c8  | d3e =f3e e3d d2=c_1/4B c2d2 dccB  | 
w:  has *  ret  i *  *  le   |  günc_ *  *  *  i  *  mi *  *  hen  | 
_1/4B8 d4 cdec d8  | d3c e3d dc2B cBBA A6z2  | \
w:  de   SAZ  |  Ben  *  ağ *  la *  *  ya *  *  *  yım   | 
dcBA B2d2 dc2B BAGF G8  | 
w:  has *  *  *  *  *  ret  *  *  i *  *  *  le   | 
G2A6 B3A d4 dc2B cBBA  | A8 |
w:  günc_ *  i  *  mi hen  |  de    | 


